img/fb.svg

<svg xmlns="http://www.w3.org/2000/svg" width="32" height="32" class="icon"><path d="M0,15.2068966 C0,6.80835908 6.80835908,0 15.2068966,0 C23.605434,0 30.4137931,6.80835908 30.4137931,15.2068966 C30.4137931,23.605434 23.605434,30.4137931 15.2068966,30.4137931 C6.80835908,30.4137931 0,23.605434 0,15.2068966 Z M16.2850371,23.6413236 L16.2850371,15.367969 L18.5688448,15.367969 L18.8714986,12.5169252 L16.2850371,12.5169252 L16.2889172,11.0899503 C16.2889172,10.3463542 16.3595688,9.94791841 17.4275876,9.94791841 L18.8553312,9.94791841 L18.8553312,7.09655172 L16.5712001,7.09655172 C13.8275914,7.09655172 12.8619123,8.47961471 12.8619123,10.8054917 L12.8619123,12.5172481 L11.1517241,12.5172481 L11.1517241,15.3682919 L12.8619123,15.3682919 L12.8619123,23.6413236 L16.2850371,23.6413236 Z" fill="currentColor"></path></svg>

<?xml version="1.0" encoding="utf-8"?>
<!-- Generator: Adobe Illustrator 22.1.0, SVG Export Plug-In . SVG Version: 6.00 Build 0)  -->
<svg version="1.1" id="Calque_1" xmlns="http://www.w3.org/2000/svg" xmlns:xlink="http://www.w3.org/1999/xlink" x="0px" y="0px"
	 viewBox="0 0 32 32" style="enable-background:new 0 0 32 32;" xml:space="preserve">
<style type="text/css">
	.st0{fill:#FFFFFF;}
</style>
<path class="st0" d="M0,15.2C0,6.8,6.8,0,15.2,0s15.2,6.8,15.2,15.2s-6.8,15.2-15.2,15.2S0,23.6,0,15.2z M16.3,23.6v-8.3h2.3
	l0.3-2.9h-2.6l0-1.4c0-0.7,0.1-1.1,1.1-1.1h1.4V7.1h-2.3c-2.7,0-3.7,1.4-3.7,3.7v1.7h-1.7v2.9h1.7v8.3H16.3z"/>
</svg>
